X: 1
T: The Green Fields Of Woodford
R: jig
M: 6/8
L: 1/8
K: Gmaj
dBA GAE|EDE Gzd|edB dBA|Bge ege|
dBA GAE|EDE GzB|GED A2B|GED D2z:|
BGG dBd|ege dBG|BGG dBd|edB AGA|
BzB dBd|ege dBG|AGE A2B|GED D2z|
BGG dBd|ege dBG|BGG dBd|edB AGA|
BzB deg|age dBG|AGE AzB|Ged ege||


Tune 4070	Setting 28263

